material/.icons/material/umbrella-closed.svg

<svg xmlns="http://www.w3.org/2000/svg" viewBox="0 0 24 24"><path d="M12 2c-.4 0-.7.2-.9.6L6.5 15H11v4c0 .6-.4 1-1 1s-1-.4-1-1v-1H7v1c0 1.7 1.3 3 3 3s3-1.3 3-3v-4h4.5L12.9 2.6c-.2-.4-.5-.6-.9-.6z"/></svg>

<?xml version="1.0" encoding="UTF-8"?><!DOCTYPE svg PUBLIC "-//W3C//DTD SVG 1.1//EN" "http://www.w3.org/Graphics/SVG/1.1/DTD/svg11.dtd"><svg xmlns="http://www.w3.org/2000/svg" xmlns:xlink="http://www.w3.org/1999/xlink" version="1.1" id="mdi-umbrella-closed" width="24" height="24" viewBox="0 0 24 24"><path d="M12 2C11.6 2 11.3 2.2 11.1 2.6L6.5 15H11V19C11 19.6 10.6 20 10 20C9.4 20 9 19.6 9 19V18H7V19C7 20.7 8.3 22 10 22S13 20.7 13 19V15H17.5L12.9 2.6C12.7 2.2 12.4 2 12 2Z" /></svg>
